X:1
T:Title
%%score { ( 1 4 5 ) | ( 2 3 ) }
L:1/8
M:4/4
K:F
V:1 treble nm="Grand Piano"
V:4 treble 
V:5 treble 
V:2 bass 
V:3 bass 
V:1
 z8[Q:1/4=100] | .[A,CA]2 [CF]2- [CF]GFE | D2 C4 z2 | .[B,B]2 G4 Bd | [Ac]4- [Ac]A[GB]d | %5
 .[B,GB]2 [EG]2- [EG]GAc | .[A,FA]2 F2- FFGB | .[B,EG]2 E2 [B,Ec]2 [Ec]2 | [Fc]4- [Fc]ABd | %9
 .[B,GB]2 [EG]2- [EG]GAc | .[A,FA]2 F2- FFGB | z2 E2 F2 z2 | F6[K:bass][K:treble] z2 | %13
 [Fc]2 c4 .c2 | E2- [Ec]2- [Ec]AB=B | [Fc]2 [FA]2- [FA]BGE |[M:5/8] [EG]2 z z2 |[M:3/8] [FA]AG | %18
[M:4/4] [CF]2 C4 .G2 | .[A,FA]2 [FA]2- [FA]AAG | c-[G,c] B2 A2 [EG]2 | [EG]4- [EG]AAG | %22
 [CF]2 C2- Cd[Fd]^c | [Ac]4- [Ac]AB=B | [Fc]2 [FA]2- [FA]BGE | F6[K:bass][K:treble] z2 | %26
 [Fc]2 c4 z2 | E2- [Ec]2- [Ec]AB=B | [Fc]2 [FA]2- [FA]BGE |[M:5/8] [EG]2 z z2 |] %30
V:2
 z4 z CDC | z F,A,F, C,4 | .[B,,B,]2 .[C,A,]2 z DEC | z G,B,G, z[K:treble] A G,2 | %4
 A,F,A,F, z F z[K:treble] B | z G,B,G, z[K:treble] E F2 | z F,A,F, C,2 [G,B,E]2 | z G,B,G, z2 G,2 | %8
 A,F,A,F, z[K:treble] FGB | z G,B,G, z[K:treble] E F2 | z F,A,F, C,2 [G,B,E]2 | %11
 z G, .B,2 .A,2 [G,B,E]2 | .A,2 z2 z[K:treble] FFF | z4 C2[K:treble] A,2 | z G,B,G, C,4 | %15
 A,F,A,F, C,2 .[G,B,E]2 |[M:5/8] z G,A, F,F,, |[M:3/8] z[K:treble] FE | %18
[M:4/4][K:bass] z4 F,2[K:treble] A,2 | z F,A,F, z[K:treble] F .F2 | .B,2 B,G, E,G,B,G, | %21
 z G,B,G, C,4 | z4 F,2[K:treble] B,2 | .A,2 z2 z4 | C,-[C,-F,][C,-A,][C,F,] z E [G,B,]2 | %25
 .A,2 z2 z[K:treble] FFF | z4 C4[K:treble] | z G,B,G, C,4 | A,F,A,F, C,2 [G,B,]2 | %29
[M:5/8] z G, F,,3 |] %30
V:3
 x8 | C,4 z4 | x8 | C,4 C,2[K:treble] z2 | C,4 C,2 C,2[K:treble] | C,4 C,4[K:treble] | C,4 z4 | %7
 C,4 C,4 | C,4 C,4[K:treble] | C,4 C,4[K:treble] | C,4 z4 | C,8 | [C,C-]4 C2[K:treble] z2 | %13
 F,,C,F,A, z[K:treble] c z c | C,4 z4 | C,4 z4 |[M:5/8] C,- C,3 z |[M:3/8] F,,3[K:treble] | %18
[M:4/4][K:bass] F,,C,F,C, z[K:treble] F z F | C,4 C,4[K:treble] | C,8 | C,4 z4 | %22
 F,,C,F,C, z[K:treble] F z F | C,-[C,-F,][C,-A,][C,F,] C,4 | .A,2 z2 C,2 z2 | C,4 z4[K:treble] | %26
 F,,C,F,A, z[K:treble] ccc | C,4 z4 | C,4 z4 |[M:5/8] C,2 z z2 |] %30
V:4
 x8 | x8 | z F, z F, C,4 | x8 | x8 | x8 | x8 | x8 | x8 | x8 | x8 | .[B,EG]2 z G, z F, G2 | %12
 z[K:bass] F,A,F, z[K:treble] ccc | z2 F6 | .[B,c]2 z2 z4 | x8 |[M:5/8] B, z F3 |[M:3/8] x3 | %18
[M:4/4] x8 | x8 | E6 z2 | .B,2 z2 z4 | x8 | x8 | x8 | z[K:bass] F,A,F, z[K:treble] ccc | z2 F6 | %27
 .[B,c]2 z2 z4 | x8 |[M:5/8] B, z [F,F]3 |] %30
V:5
 x8 | x8 | x8 | x8 | x8 | x8 | x8 | x8 | x8 | x8 | x8 | x8 | z4[K:bass] F,,4[K:treble] | x8 | x8 | %15
 x8 |[M:5/8] x5 |[M:3/8] x3 |[M:4/4] x8 | x8 | x8 | x8 | x8 | x8 | x8 | z4[K:bass] F,,4[K:treble] | %26
 x8 | x8 | x8 |[M:5/8] x5 |] %30

